X: 1630
T: Anne McAuliffe's
R: jig
M: 6/8
K: Gmajor
A|:BAB ~d2 B|dgf d2 c|~B3 cAd|cAG (3FGA D|
~B3 ~d2 B|dgf d2 c|BAB (3cBA d|cAF G3:|
~B3 dgf|dgf dcA|~B3 dgf|dcA AGA|
~B3 dgf|dgf dcA|~B3 cAd|cAF G3:|

